Icons/TM_Icons/more icons/spirit-jew.svg

<?xml version='1.0' encoding='utf-8'?>
<ns0:svg xmlns:ns0="http://www.w3.org/2000/svg" version="1.1" viewBox="74.0 0.0 1480.0 1480.0" role="img" focusable="false" preserveAspectRatio="xMidYMid meet">
   <ns0:path fill="currentColor" d="M714 -310h200l-100 -173zM1184 159l-99 172h199zM543 331l-99 -172l-100 172h199zM173 430l214 -370l-214 -370h427l214 -370l214 370h427l-214 370l214 370h-427l-214 370l-214 -370h-427zM1085 -212l99 173l100 -173h-199zM914 430h-200l100 173zM657 331h313l157 -271 l-156 -272h-314l-156 272zM444 -39l99 -173h-199z" />
</ns0:svg>

<svg xmlns="http://www.w3.org/2000/svg" width="400" height="200" viewBox="-666 -680 2960 1480"><path fill="currentColor" d="M714-310h200L814-483zm470 469-99 172h199zM543 331l-99-172-100 172zm-370 99L387 60 173-310h427l214-370 214 370h427L1241 60l214 370h-427L814 800 600 430zm912-642 99 173 100-173zM914 430H714l100 173zm-257-99h313l157-271-156-272H657L501 60zM444-39l99-173H344z"/></svg>
